core/duo/computer-devices/dropbox.svg

<svg xmlns="http://www.w3.org/2000/svg" fill="none" viewBox="0 0 14 14" id="Dropbox--Streamline-Core">
  <desc>
    Dropbox Streamline Icon: https://streamlinehq.com
  </desc>
  <g id="dropbox">
    <path id="Rectangle 53" fill="#d7e0ff" d="m7.00194 13.0313 2.02624 -1.3886V8.5H4.97571v3.1427l2.02623 1.3886Z" stroke-width="1"></path>
    <path id="Rectangle 62" stroke="#4147d5" stroke-linecap="round" stroke-linejoin="round" d="m4.97571 11.6427 2.02623 1.3886 2.02624 -1.3886" stroke-width="1"></path>
    <path id="Rectangle 54" fill="#d7e0ff" d="m7.00085 8.58013 3.21205 -2.20122 3.212 2.20122 -3.212 2.20127 -3.21205 -2.20127Z" stroke-width="1"></path>
    <path id="Rectangle 56" fill="#d7e0ff" d="m7.00085 4.17388 3.21205 -2.20122 3.212 2.20122 -3.212 2.20123 -3.21205 -2.20123Z" stroke-width="1"></path>
    <path id="Rectangle 55" fill="#d7e0ff" d="M0.575073 8.58013 3.78712 6.37891l3.21204 2.20122 -3.21204 2.20127L0.575073 8.58013Z" stroke-width="1"></path>
    <path id="Rectangle 57" fill="#d7e0ff" d="M0.575073 4.17388 3.78712 1.97266l3.21204 2.20122 -3.21204 2.20123L0.575073 4.17388Z" stroke-width="1"></path>
    <path id="Rectangle 58" stroke="#4147d5" stroke-linecap="round" stroke-linejoin="round" d="m7.00085 8.58013 3.21205 -2.20122 3.212 2.20122 -3.212 2.20127 -3.21205 -2.20127Z" stroke-width="1"></path>
    <path id="Rectangle 59" stroke="#4147d5" stroke-linecap="round" stroke-linejoin="round" d="m7.00085 4.17388 3.21205 -2.20122 3.212 2.20122 -3.212 2.20123 -3.21205 -2.20123Z" stroke-width="1"></path>
    <path id="Rectangle 60" stroke="#4147d5" stroke-linecap="round" stroke-linejoin="round" d="M0.575073 8.58013 3.78712 6.37891l3.21204 2.20122 -3.21204 2.20127L0.575073 8.58013Z" stroke-width="1"></path>
    <path id="Rectangle 61" stroke="#4147d5" stroke-linecap="round" stroke-linejoin="round" d="M0.575073 4.17388 3.78712 1.97266l3.21204 2.20122 -3.21204 2.20123L0.575073 4.17388Z" stroke-width="1"></path>
  </g>
</svg>

<svg xmlns="http://www.w3.org/2000/svg" fill="none" viewBox="0 0 14 14"><g id="dropbox"><path id="Rectangle 53" fill="#37d7ff" d="m7.002 13.031 2.026-1.388V8.5H4.976v3.143l2.026 1.388Z"></path><path id="Rectangle 62" stroke="#3e3e3e" stroke-linecap="round" stroke-linejoin="round" d="m4.976 11.643 2.026 1.388 2.026-1.388"></path><path id="Rectangle 54" fill="#37d7ff" d="m7 8.58 3.213-2.201 3.212 2.201-3.212 2.201L7 8.581Z"></path><path id="Rectangle 56" fill="#37d7ff" d="m7 4.174 3.213-2.201 3.212 2.2-3.212 2.202L7 4.174Z"></path><path id="Rectangle 55" fill="#37d7ff" d="m.575 8.58 3.212-2.2L7 8.58l-3.212 2.201-3.212-2.2Z"></path><path id="Rectangle 57" fill="#37d7ff" d="m.575 4.174 3.212-2.201L7 4.173 3.787 6.376.575 4.174Z"></path><path id="Rectangle 58" stroke="#3e3e3e" stroke-linecap="round" stroke-linejoin="round" d="m7 8.58 3.213-2.201 3.212 2.201-3.212 2.201L7 8.581Z"></path><path id="Rectangle 59" stroke="#3e3e3e" stroke-linecap="round" stroke-linejoin="round" d="m7 4.174 3.213-2.201 3.212 2.2-3.212 2.202L7 4.174Z"></path><path id="Rectangle 60" stroke="#3e3e3e" stroke-linecap="round" stroke-linejoin="round" d="m.575 8.58 3.212-2.2L7 8.58l-3.212 2.201-3.212-2.2Z"></path><path id="Rectangle 61" stroke="#3e3e3e" stroke-linecap="round" stroke-linejoin="round" d="m.575 4.174 3.212-2.201L7 4.173 3.787 6.376.575 4.174Z"></path></g></svg>
